server/public/icons/misc/settings-gear.svg

<svg width="13" height="14" viewBox="0 0 13 14" fill="none" xmlns="http://www.w3.org/2000/svg">
<path d="M7.94364 8.15792C8.36216 7.7394 8.57143 7.23437 8.57143 6.64286C8.57143 6.05134 8.36216 5.54632 7.94364 5.12779C7.52511 4.70926 7.02009 4.5 6.42857 4.5C5.83705 4.5 5.33203 4.70926 4.9135 5.12779C4.49498 5.54632 4.28571 6.05134 4.28571 6.64286C4.28571 7.23437 4.49498 7.7394 4.9135 8.15792C5.33203 8.57645 5.83705 8.78571 6.42857 8.78571C7.02009 8.78571 7.52511 8.57645 7.94364 8.15792ZM12.8571 5.73047V7.58873C12.8571 7.65569 12.8348 7.71987 12.7902 7.78125C12.7455 7.84263 12.6897 7.87891 12.6228 7.89007L11.0742 8.12444C10.9682 8.42578 10.8594 8.67969 10.7478 8.88616C10.9431 9.16518 11.2416 9.55022 11.6434 10.0413C11.6992 10.1083 11.7271 10.178 11.7271 10.2506C11.7271 10.3231 11.702 10.3873 11.6518 10.4431C11.5011 10.6496 11.2249 10.9509 10.8231 11.3471C10.4213 11.7433 10.159 11.9414 10.0363 11.9414C9.96931 11.9414 9.89676 11.9163 9.81864 11.8661L8.6635 10.9621C8.41797 11.0904 8.16406 11.1964 7.90179 11.2801C7.8125 12.0391 7.73158 12.558 7.65904 12.8371C7.61998 12.9933 7.51953 13.0714 7.3577 13.0714H5.49944C5.42132 13.0714 5.35156 13.0463 5.29018 12.9961C5.23438 12.9515 5.20368 12.8929 5.1981 12.8203L4.96373 11.2801C4.69029 11.1908 4.43917 11.0876 4.21038 10.9704L3.03013 11.8661C2.97433 11.9163 2.90458 11.9414 2.82087 11.9414C2.74275 11.9414 2.67299 11.9107 2.61161 11.8493C1.90848 11.2132 1.4481 10.7444 1.23047 10.4431C1.19141 10.3873 1.17188 10.3231 1.17188 10.2506C1.17188 10.1836 1.1942 10.1194 1.23884 10.058C1.32254 9.94085 1.46484 9.7567 1.66574 9.50558C1.86663 9.24888 2.0173 9.05078 2.11775 8.91127C1.96708 8.63225 1.85268 8.35603 1.77455 8.08259L0.242746 7.85658C0.170201 7.84542 0.111607 7.81194 0.0669643 7.75614C0.0223214 7.69475 0 7.62779 0 7.55525V5.69699C0 5.63002 0.0223214 5.56585 0.0669643 5.50446C0.111607 5.44308 0.164621 5.40681 0.226004 5.39565L1.78292 5.16127C1.86105 4.90458 1.96987 4.64788 2.10938 4.39118C1.88616 4.0731 1.58761 3.68806 1.21373 3.23605C1.15792 3.16909 1.13002 3.10212 1.13002 3.03516C1.13002 2.97935 1.15513 2.91518 1.20536 2.84263C1.35045 2.64174 1.62388 2.34319 2.02567 1.94699C2.43304 1.5452 2.6981 1.34431 2.82087 1.34431C2.89342 1.34431 2.96596 1.37221 3.0385 1.42801L4.19364 2.32366C4.43917 2.19531 4.69308 2.08929 4.95536 2.00558C5.04464 1.24665 5.12556 0.727679 5.1981 0.448661C5.23717 0.292411 5.33761 0.214286 5.49944 0.214286H7.3577C7.43583 0.214286 7.50279 0.239398 7.55859 0.28962C7.61998 0.334263 7.65346 0.392857 7.65904 0.465402L7.89341 2.00558C8.16685 2.09487 8.41797 2.1981 8.64676 2.31529L9.83538 1.41964C9.8856 1.36942 9.95257 1.34431 10.0363 1.34431C10.1088 1.34431 10.1786 1.37221 10.2455 1.42801C10.9654 2.09208 11.4258 2.56641 11.6267 2.851C11.6657 2.89565 11.6853 2.95703 11.6853 3.03516C11.6853 3.10212 11.6629 3.16629 11.6183 3.22768C11.5346 3.34487 11.3923 3.53181 11.1914 3.7885C10.9905 4.03962 10.8398 4.23493 10.7394 4.37444C10.8845 4.65346 10.9989 4.9269 11.0826 5.19475L12.6144 5.42913C12.6869 5.44029 12.7455 5.47656 12.7902 5.53795C12.8348 5.59375 12.8571 5.65792 12.8571 5.73047Z" fill="#C4C4C4"/>
</svg>

<svg width="13" height="14" fill="none" xmlns="http://www.w3.org/2000/svg"><path d="M7.944 8.158c.418-.419.627-.924.627-1.515 0-.592-.209-1.097-.627-1.515A2.065 2.065 0 006.429 4.5c-.592 0-1.097.21-1.516.628a2.065 2.065 0 00-.627 1.515c0 .591.209 1.096.628 1.515.418.418.923.628 1.515.628.591 0 1.096-.21 1.515-.628zm4.913-2.428V7.59a.323.323 0 01-.067.192.255.255 0 01-.167.11l-1.549.233a5.36 5.36 0 01-.326.762c.195.28.494.664.895 1.155a.324.324 0 01.084.21.28.28 0 01-.075.192c-.15.207-.427.508-.829.904-.402.396-.664.594-.787.594a.409.409 0 01-.217-.075l-1.155-.904a4.78 4.78 0 01-.762.318c-.09.76-.17 1.278-.243 1.557-.039.156-.14.234-.301.234H5.499a.322.322 0 01-.209-.075.24.24 0 01-.092-.176l-.234-1.54a5.173 5.173 0 01-.754-.31l-1.18.896a.301.301 0 01-.21.075.288.288 0 01-.208-.092c-.704-.636-1.164-1.105-1.382-1.406a.327.327 0 01.009-.385c.084-.117.226-.301.427-.552.2-.257.351-.455.452-.595a4.142 4.142 0 01-.343-.828L.243 7.857a.27.27 0 01-.176-.1A.334.334 0 010 7.554V5.697c0-.067.022-.131.067-.193a.252.252 0 01.159-.108l1.557-.235c.078-.256.187-.513.326-.77a19.058 19.058 0 00-.895-1.155.315.315 0 01-.084-.2c0-.057.025-.12.075-.193.145-.201.419-.5.82-.896.408-.402.673-.603.796-.603.072 0 .145.028.217.084l1.156.896c.245-.129.5-.235.761-.318.09-.76.17-1.278.243-1.557.04-.157.14-.235.301-.235h1.859a.29.29 0 01.2.076.231.231 0 01.101.175l.234 1.54c.274.09.525.193.754.31l1.188-.895a.272.272 0 01.201-.076c.073 0 .143.028.21.084.72.664 1.18 1.138 1.38 1.423a.27.27 0 01.06.184.323.323 0 01-.068.193c-.083.117-.226.304-.427.56-.2.252-.351.447-.452.586.145.28.26.553.344.82l1.531.235a.26.26 0 01.176.109.3.3 0 01.067.192z" fill="#C4C4C4"/></svg>
